packages/Snappmarket/src/DiscountIcon/index.svg

<svg
  xmlns="http://www.w3.org/2000/svg"
  width="32pt"
  height="33pt"
  viewBox="0 0 32 33"
  version="1.1"
  id="DiscountIcon"
>
  <g>
    <path d="M 13.34375 1.199219 C 12.011719 2.316406 11.796875 2.359375 9.867188 1.972656 C 7.335938 1.457031 6.734375 1.84375 6.050781 4.414062 C 5.621094 6.128906 5.449219 6.300781 3.5625 6.898438 L 1.5 7.5 L 1.5 10.15625 C 1.5 12.085938 1.289062 13.070312 0.773438 13.714844 C -0.257812 14.871094 -0.257812 18.128906 0.730469 19.285156 C 1.285156 19.929688 1.5 20.914062 1.5 22.800781 L 1.5 25.457031 L 3.515625 26.101562 C 5.40625 26.65625 5.617188 26.871094 6.21875 28.757812 C 6.992188 31.117188 7.808594 31.542969 10.125 30.902344 C 11.496094 30.515625 11.839844 30.601562 13.382812 31.757812 C 15.613281 33.34375 16.386719 33.300781 18.402344 31.671875 C 19.988281 30.429688 20.160156 30.386719 21.835938 30.859375 C 24.410156 31.542969 25.179688 31.15625 25.867188 28.800781 C 26.425781 26.914062 26.597656 26.742188 28.570312 26.101562 C 30.929688 25.371094 31.316406 24.472656 30.542969 21.730469 C 30.199219 20.445312 30.285156 20.058594 31.144531 19.03125 C 32.347656 17.527344 32.515625 14.957031 31.445312 13.714844 C 30.886719 13.074219 30.671875 12.085938 30.671875 10.160156 L 30.671875 7.5 L 28.570312 6.816406 C 26.597656 6.214844 26.425781 6.042969 25.867188 4.15625 C 25.226562 1.886719 24.238281 1.371094 21.792969 2.058594 C 20.503906 2.402344 20.164062 2.316406 18.832031 1.242188 C 16.945312 -0.34375 15.230469 -0.34375 13.34375 1.199219 Z M 20.804688 4.972656 L 23.035156 4.714844 L 23.421875 6.515625 C 23.765625 8.1875 23.9375 8.355469 25.78125 8.871094 L 27.757812 9.429688 L 27.328125 11.441406 C 26.855469 13.414062 26.855469 13.414062 28.527344 14.871094 L 30.203125 16.328125 L 28.570312 17.65625 C 27.113281 18.859375 26.941406 19.15625 27.15625 20.527344 C 27.285156 21.386719 27.5 22.371094 27.628906 22.757812 C 27.84375 23.269531 27.457031 23.570312 25.914062 24.042969 C 24.066406 24.597656 23.8125 24.8125 23.382812 26.355469 C 22.867188 28.15625 22.695312 28.199219 20.25 27.683594 C 19.046875 27.386719 18.707031 27.554688 17.460938 28.800781 L 16.089844 30.214844 L 14.671875 28.757812 C 13.644531 27.726562 13.042969 27.386719 12.3125 27.554688 C 11.796875 27.683594 10.898438 27.941406 10.296875 28.070312 C 9.3125 28.328125 9.140625 28.15625 8.667969 26.398438 C 8.195312 24.554688 8.023438 24.425781 6.222656 23.957031 C 4.894531 23.613281 4.335938 23.269531 4.464844 22.882812 C 4.59375 22.585938 4.804688 21.640625 4.980469 20.785156 C 5.234375 19.414062 5.109375 19.113281 3.648438 17.742188 L 2.019531 16.242188 L 3.605469 14.914062 C 5.066406 13.710938 5.195312 13.457031 4.9375 12.128906 C 4.808594 11.3125 4.550781 10.371094 4.421875 10.070312 C 4.292969 9.640625 4.808594 9.296875 6.179688 8.957031 C 8.023438 8.484375 8.195312 8.355469 8.625 6.597656 L 9.097656 4.710938 L 11.371094 4.96875 C 13.558594 5.226562 13.644531 5.226562 14.847656 3.726562 L 16.046875 2.183594 L 17.335938 3.726562 C 18.578125 5.183594 18.664062 5.226562 20.808594 4.96875 Z M 10.636719 9.472656 C 8.621094 10.242188 8.152344 13.199219 9.78125 15.085938 C 10.683594 16.15625 13.46875 16.113281 14.585938 15 C 15.703125 13.886719 15.742188 11.144531 14.714844 10.15625 C 13.6875 9.257812 12.011719 8.957031 10.640625 9.472656 Z M 14.972656 15.386719 C 9.308594 21.042969 8.535156 22.328125 10.640625 22.628906 C 12.011719 22.84375 22.4375 12.425781 22.222656 11.054688 C 21.921875 8.957031 20.636719 9.726562 14.972656 15.382812 Z M 18.359375 17.1875 C 17.632812 17.484375 17.03125 18.128906 16.730469 19.027344 C 15.914062 21.558594 17.246094 23.570312 19.820312 23.570312 C 22.007812 23.570312 23.164062 22.414062 23.164062 20.226562 C 23.164062 17.65625 20.933594 16.242188 18.359375 17.183594 Z M 18.359375 17.1875 "/>
  </g>
</svg>

<svg xmlns="http://www.w3.org/2000/svg" viewBox="0 0 32 33">
  <path d="M13.344 1.2c-1.332 1.116-1.547 1.16-3.477.773-2.531-.516-3.133-.13-3.816 2.441-.43 1.715-.602 1.887-2.489 2.484L1.5 7.5v2.656c0 1.93-.21 2.914-.727 3.559-1.03 1.156-1.03 4.414-.043 5.57.555.645.77 1.63.77 3.516v2.656l2.016.645c1.89.554 2.101.77 2.703 2.656.773 2.36 1.59 2.785 3.906 2.144 1.371-.386 1.715-.3 3.258.856 2.23 1.586 3.004 1.543 5.02-.086 1.585-1.242 1.757-1.285 3.433-.813 2.574.684 3.344.297 4.031-2.058.559-1.887.73-2.059 2.703-2.7 2.36-.73 2.746-1.628 1.973-4.37-.344-1.286-.258-1.672.602-2.7 1.203-1.504 1.37-4.074.3-5.316-.558-.64-.773-1.63-.773-3.555V7.5l-2.102-.684c-1.972-.601-2.144-.773-2.703-2.66-.64-2.27-1.629-2.785-4.074-2.097-1.29.343-1.629.257-2.961-.817C16.945-.344 15.23-.344 13.344 1.2zm7.46 3.773l2.231-.258.387 1.8c.344 1.673.515 1.84 2.36 2.356l1.976.559-.43 2.011c-.473 1.973-.473 1.973 1.2 3.43l1.675 1.457-1.633 1.328c-1.457 1.203-1.629 1.5-1.414 2.871.13.86.344 1.844.473 2.23.215.513-.172.813-1.715 1.286-1.848.555-2.102.77-2.531 2.312-.516 1.801-.688 1.844-3.133 1.329-1.203-.297-1.543-.13-2.79 1.117l-1.37 1.414-1.418-1.457c-1.027-1.031-1.629-1.371-2.36-1.203-.515.129-1.414.386-2.015.515-.985.258-1.156.086-1.629-1.672-.473-1.843-.645-1.972-2.445-2.441-1.328-.344-1.887-.687-1.758-1.074.129-.297.34-1.242.515-2.098.254-1.37.13-1.672-1.332-3.043l-1.628-1.5 1.585-1.328c1.461-1.203 1.59-1.457 1.333-2.785-.13-.816-.387-1.758-.516-2.059-.129-.43.387-.773 1.758-1.113 1.843-.473 2.015-.602 2.445-2.36l.473-1.886 2.273.258c2.188.258 2.274.258 3.477-1.242l1.199-1.543 1.289 1.543c1.242 1.457 1.328 1.5 3.473 1.242zm-10.167 4.5c-2.016.77-2.485 3.726-.856 5.613.903 1.07 3.688 1.027 4.805-.086 1.117-1.113 1.156-3.855.129-4.844-1.027-.898-2.703-1.199-4.074-.683zm4.336 5.914c-5.664 5.656-6.438 6.941-4.332 7.242 1.37.215 11.796-10.203 11.582-11.574-.301-2.098-1.586-1.328-7.25 4.328zm3.386 1.8c-.726.297-1.328.942-1.629 1.84-.816 2.532.516 4.543 3.09 4.543 2.188 0 3.344-1.156 3.344-3.343 0-2.57-2.23-3.985-4.805-3.043zm0 0"/>
</svg>
